public/img/general/logos/toyota_logo_black.svg

<svg width="67" height="44" viewBox="0 0 67 44" fill="none" xmlns="http://www.w3.org/2000/svg">
<path d="M33.5 0C14.9925 0 0 9.84211 0 22C0 34.1579 14.9925 44 33.5 44C52.0075 44 67 34.1579 67 22C67 9.84211 52.0075 0 33.5 0ZM33.5 2.60527C44.3319 2.60527 53.0835 5.78948 53.0835 9.69737C53.0835 12.5921 48.2056 15.125 41.2473 16.2105C40.0996 8.61185 37.0867 3.11184 33.5 3.11184C29.9133 3.11184 26.9004 8.61185 25.7527 16.2105C18.7944 15.125 13.9165 12.5921 13.9165 9.69737C13.9165 5.78948 22.6681 2.60527 33.5 2.60527ZM38.091 16.6447C36.5846 16.7895 35.0782 16.8618 33.4283 16.8618C31.7784 16.8618 30.2719 16.7895 28.7655 16.6447C29.4829 11.7237 31.2762 8.32237 33.4283 8.32237C35.5803 8.32237 37.3737 11.7237 38.091 16.6447ZM31.2762 41.7566C16.2837 41.0329 4.44754 32.0592 4.44754 21.2039C4.44754 17.5132 5.81049 14.0395 8.17773 11.0724V11C8.39293 15.9934 15.4229 20.2632 25.1788 21.7829C25.1788 22.1447 25.1788 22.4342 25.1788 22.7961C25.2505 31.9145 27.833 39.5855 31.2762 41.7566ZM33.5 34.9539C30.8458 34.9539 28.6221 29.3092 28.4786 22.2171C30.1285 22.3618 31.7784 22.4342 33.5 22.4342C35.2216 22.4342 36.8715 22.3618 38.5214 22.2171C38.3779 29.3092 36.1542 34.9539 33.5 34.9539ZM35.652 41.7566C39.0953 39.5132 41.6777 31.9145 41.6777 22.7961C41.6777 22.4342 41.6777 22.1447 41.6777 21.7829C51.4336 20.2632 58.5353 15.9934 58.6788 11V11.0724C61.046 14.0395 62.409 17.5132 62.409 21.2039C62.4807 32.0592 50.6445 41.0329 35.652 41.7566Z" fill="black"/>
</svg>

<svg width="67" height="44" fill="none" xmlns="http://www.w3.org/2000/svg"><path d="M33.5 0C14.992 0 0 9.842 0 22s14.992 22 33.5 22S67 34.158 67 22 52.008 0 33.5 0zm0 2.605c10.832 0 19.584 3.184 19.584 7.092 0 2.895-4.878 5.428-11.837 6.514-1.147-7.6-4.16-13.1-7.747-13.1-3.587 0-6.6 5.5-7.747 13.1-6.959-1.086-11.837-3.619-11.837-6.514 0-3.908 8.752-7.092 19.584-7.092zm4.591 14.04a48.001 48.001 0 01-4.663.217c-1.65 0-3.156-.072-4.662-.217.717-4.921 2.51-8.323 4.662-8.323s3.946 3.402 4.663 8.323zm-6.815 25.112c-14.992-.724-26.828-9.698-26.828-20.553 0-3.69 1.362-7.165 3.73-10.132V11c.215 4.993 7.245 9.263 17 10.783v1.013c.072 9.119 2.655 16.79 6.098 18.96zm2.224-6.803c-2.654 0-4.878-5.645-5.021-12.737 1.65.145 3.3.217 5.021.217 1.722 0 3.371-.072 5.021-.217-.143 7.092-2.367 12.737-5.021 12.737zm2.152 6.803c3.443-2.244 6.026-9.842 6.026-18.96v-1.014c9.756-1.52 16.857-5.79 17-10.783v.072c2.368 2.968 3.731 6.441 3.731 10.132.072 10.855-11.764 19.829-26.757 20.553z" fill="#000"/></svg>
